icons/1_Primary/Osaka University.svg

<svg width="1024" height="1024" fill="none" xmlns="http://www.w3.org/2000/svg"><g clip-path="url(#a)"><path d="M512 1024c282.77 0 512-229.23 512-512S794.77 0 512 0 0 229.23 0 512s229.23 512 512 512Z" fill="#54688C"/><path d="M765.78 473.78c-13.51-102.85-88.08-186.42-186.09-213.23L512 328.23a179.256 179.256 0 0 1 175.43 142.54A255.61 255.61 0 0 0 512 571.44a255.688 255.688 0 0 0-175.44-100.67c16.93-81.38 89-142.54 175.44-142.54l-67.68-67.68c-98 26.81-172.57 110.38-186.11 213.23a255.398 255.398 0 0 0 1.79 78.38 179.326 179.326 0 0 1 124.28 11.146 179.325 179.325 0 0 1 86.92 89.524A176.967 176.967 0 0 1 481.63 684a179.713 179.713 0 0 1 1 77.69c-.14.59-.29 1.16-.43 1.73h59.57c-.11-.58-.29-1.15-.41-1.73a179.543 179.543 0 0 1 1-77.69 179.113 179.113 0 0 1 144.06-135.54 178.89 178.89 0 0 1 77.58 3.7 255.082 255.082 0 0 0 1.75-78.38h.03Z" fill="#fff"/></g><defs><clipPath id="a"><path fill="#fff" d="M0 0h1024v1024H0z"/></clipPath></defs></svg>

<svg width="1024" height="1024" viewBox="0 0 1024 1024" fill="none" xmlns="http://www.w3.org/2000/svg">
<g clip-path="url(#clip0_2_3066)">
<path d="M512 1024C794.77 1024 1024 794.77 1024 512C1024 229.23 794.77 0 512 0C229.23 0 0 229.23 0 512C0 794.77 229.23 1024 512 1024Z" fill="#54688C"/>
<path d="M765.78 473.78C752.27 370.93 677.7 287.36 579.69 260.55L512 328.23C553.162 328.237 593.067 342.409 625.013 368.365C656.959 394.322 678.999 430.481 687.43 470.77C652.878 474.733 619.499 485.705 589.334 503.015C559.17 520.325 532.855 543.608 512 571.44C491.142 543.61 464.824 520.328 434.659 503.018C404.493 485.709 371.113 474.736 336.56 470.77C353.49 389.39 425.56 328.23 512 328.23L444.32 260.55C346.32 287.36 271.75 370.93 258.21 473.78C254.769 499.843 255.373 526.281 260 552.16C301.425 540.878 345.523 544.833 384.28 563.306C423.036 581.78 453.878 613.546 471.2 652.83C475.636 662.874 479.128 673.309 481.63 684C487.624 709.514 487.966 736.03 482.63 761.69C482.49 762.28 482.34 762.85 482.2 763.42H541.77C541.66 762.84 541.48 762.27 541.36 761.69C536.019 736.031 536.36 709.513 542.36 684C550.41 649.758 568.364 618.644 593.983 594.54C619.602 570.437 651.752 554.41 686.42 548.46C712.239 543.997 738.723 545.26 764 552.16C768.619 526.28 769.209 499.841 765.75 473.78H765.78Z" fill="white"/>
</g>
<defs>
<clipPath id="clip0_2_3066">
<rect width="1024" height="1024" fill="white"/>
</clipPath>
</defs>
</svg>
